public/logos/V7.svg

<?xml version="1.0" encoding="UTF-8"?>
<svg xmlns="http://www.w3.org/2000/svg" xmlns:xlink="http://www.w3.org/1999/xlink" width="176pt" height="52.47pt" viewBox="0 0 176 52.47" version="1.1">
<defs>
<clipPath id="clip1">
  <path d="M 0 25 L 20 25 L 20 52.46875 L 0 52.46875 Z M 0 25 "/>
</clipPath>
<clipPath id="clip2">
  <path d="M 22 24 L 40 24 L 40 52.46875 L 22 52.46875 Z M 22 24 "/>
</clipPath>
<clipPath id="clip3">
  <path d="M 59 24 L 77 24 L 77 52.46875 L 59 52.46875 Z M 59 24 "/>
</clipPath>
<clipPath id="clip4">
  <path d="M 43 25 L 58 25 L 58 52.46875 L 43 52.46875 Z M 43 25 "/>
</clipPath>
<clipPath id="clip5">
  <path d="M 79 25 L 97 25 L 97 52.46875 L 79 52.46875 Z M 79 25 "/>
</clipPath>
<clipPath id="clip6">
  <path d="M 99 25 L 114 25 L 114 52.46875 L 99 52.46875 Z M 99 25 "/>
</clipPath>
<clipPath id="clip7">
  <path d="M 116 25 L 137 25 L 137 52.46875 L 116 52.46875 Z M 116 25 "/>
</clipPath>
</defs>
<g id="surface1">
<path style=" stroke:none;fill-rule:nonzero;fill:rgb(87.973022%,9.675598%,21.650696%);fill-opacity:1;" d="M 163.09375 6.457031 L 156.636719 12.910156 L 150.183594 6.457031 L 156.636719 0 L 163.09375 6.457031 "/>
<path style=" stroke:none;fill-rule:nonzero;fill:rgb(87.973022%,9.675598%,21.650696%);fill-opacity:1;" d="M 150.183594 19.363281 L 143.730469 25.816406 L 137.277344 19.363281 L 143.730469 12.910156 L 150.183594 19.363281 "/>
<path style=" stroke:none;fill-rule:nonzero;fill:rgb(87.973022%,9.675598%,21.650696%);fill-opacity:1;" d="M 154.488281 10.742188 L 154.488281 15.078125 L 155.222656 14.34375 L 155.222656 11.476562 L 154.488281 10.742188 "/>
<path style=" stroke:none;fill-rule:nonzero;fill:rgb(87.973022%,9.675598%,21.650696%);fill-opacity:1;" d="M 147.667969 8.988281 L 146.828125 9.828125 L 146.828125 15.992188 L 147.667969 16.832031 L 147.667969 8.988281 "/>
<path style=" stroke:none;fill-rule:nonzero;fill:rgb(87.973022%,9.675598%,21.650696%);fill-opacity:1;" d="M 151.339844 18.226562 L 152.179688 17.386719 L 152.179688 8.433594 L 151.339844 7.59375 L 151.339844 18.226562 "/>
<path style=" stroke:none;fill-rule:nonzero;fill:rgb(87.973022%,9.675598%,21.650696%);fill-opacity:1;" d="M 153.753906 10.007812 L 152.914062 9.167969 L 152.914062 16.652344 L 153.753906 15.8125 L 153.753906 10.007812 "/>
<path style=" stroke:none;fill-rule:nonzero;fill:rgb(87.973022%,9.675598%,21.650696%);fill-opacity:1;" d="M 148.402344 8.253906 L 148.402344 17.566406 L 149.136719 18.300781 L 149.136719 7.519531 L 148.402344 8.253906 "/>
<path style=" stroke:none;fill-rule:nonzero;fill:rgb(87.973022%,9.675598%,21.650696%);fill-opacity:1;" d="M 155.957031 13.609375 L 156.65625 12.910156 L 155.957031 12.210938 Z M 155.957031 13.609375 "/>
<path style=" stroke:none;fill-rule:nonzero;fill:rgb(87.973022%,9.675598%,21.650696%);fill-opacity:1;" d="M 145.253906 14.417969 L 146.09375 15.257812 L 146.09375 10.5625 L 145.253906 11.402344 L 145.253906 14.417969 "/>
<path style=" stroke:none;fill-rule:nonzero;fill:rgb(87.973022%,9.675598%,21.650696%);fill-opacity:1;" d="M 150.605469 6.859375 L 150.199219 6.457031 L 149.871094 6.785156 L 149.871094 19.035156 L 150.199219 19.363281 L 150.605469 18.960938 L 150.605469 6.859375 "/>
<path style=" stroke:none;fill-rule:nonzero;fill:rgb(87.973022%,9.675598%,21.650696%);fill-opacity:1;" d="M 144.519531 12.136719 L 143.746094 12.910156 L 144.519531 13.683594 Z M 144.519531 12.136719 "/>
<path style=" stroke:none;fill-rule:nonzero;fill:rgb(87.973022%,9.675598%,21.650696%);fill-opacity:1;" d="M 176 19.363281 L 169.546875 25.816406 L 163.09375 19.363281 L 169.546875 12.910156 L 176 19.363281 "/>
<path style=" stroke:none;fill-rule:nonzero;fill:rgb(87.973022%,9.675598%,21.650696%);fill-opacity:1;" d="M 163.09375 32.273438 L 156.636719 38.726562 L 150.183594 32.273438 L 156.636719 25.816406 L 163.09375 32.273438 "/>
<path style=" stroke:none;fill-rule:nonzero;fill:rgb(87.973022%,9.675598%,21.650696%);fill-opacity:1;" d="M 167.390625 23.648438 L 167.390625 27.984375 L 168.125 27.25 L 168.125 24.382812 L 167.390625 23.648438 "/>
<path style=" stroke:none;fill-rule:nonzero;fill:rgb(87.973022%,9.675598%,21.650696%);fill-opacity:1;" d="M 160.570312 21.898438 L 159.734375 22.738281 L 159.734375 28.898438 L 160.570312 29.738281 L 160.570312 21.898438 "/>
<path style=" stroke:none;fill-rule:nonzero;fill:rgb(87.973022%,9.675598%,21.650696%);fill-opacity:1;" d="M 164.242188 31.132812 L 165.082031 30.292969 L 165.082031 21.34375 L 164.242188 20.503906 L 164.242188 31.132812 "/>
<path style=" stroke:none;fill-rule:nonzero;fill:rgb(87.973022%,9.675598%,21.650696%);fill-opacity:1;" d="M 166.65625 22.914062 L 165.816406 22.078125 L 165.816406 29.558594 L 166.65625 28.71875 L 166.65625 22.914062 "/>
<path style=" stroke:none;fill-rule:nonzero;fill:rgb(87.973022%,9.675598%,21.650696%);fill-opacity:1;" d="M 161.308594 21.164062 L 161.308594 30.472656 L 162.039062 31.207031 L 162.039062 20.429688 L 161.308594 21.164062 "/>
<path style=" stroke:none;fill-rule:nonzero;fill:rgb(87.973022%,9.675598%,21.650696%);fill-opacity:1;" d="M 168.859375 26.515625 L 169.558594 25.816406 L 168.859375 25.117188 Z M 168.859375 26.515625 "/>
<path style=" stroke:none;fill-rule:nonzero;fill:rgb(87.973022%,9.675598%,21.650696%);fill-opacity:1;" d="M 158.160156 27.324219 L 158.996094 28.164062 L 158.996094 23.472656 L 158.160156 24.308594 L 158.160156 27.324219 "/>
<path style=" stroke:none;fill-rule:nonzero;fill:rgb(87.973022%,9.675598%,21.650696%);fill-opacity:1;" d="M 163.511719 19.769531 L 163.105469 19.363281 L 162.773438 19.695312 L 162.773438 31.941406 L 163.105469 32.273438 L 163.511719 31.867188 L 163.511719 19.769531 "/>
<path style=" stroke:none;fill-rule:nonzero;fill:rgb(87.973022%,9.675598%,21.650696%);fill-opacity:1;" d="M 157.425781 25.042969 L 156.652344 25.816406 L 157.425781 26.589844 Z M 157.425781 25.042969 "/>
<path style=" stroke:none;fill-rule:nonzero;fill:rgb(87.973022%,9.675598%,21.650696%);fill-opacity:1;" d="M 167.390625 10.742188 L 167.390625 15.078125 L 168.125 14.34375 L 168.125 11.476562 L 167.390625 10.742188 "/>
<path style=" stroke:none;fill-rule:nonzero;fill:rgb(87.973022%,9.675598%,21.650696%);fill-opacity:1;" d="M 160.570312 8.988281 L 159.734375 9.828125 L 159.734375 15.992188 L 160.570312 16.832031 L 160.570312 8.988281 "/>
<path style=" stroke:none;fill-rule:nonzero;fill:rgb(87.973022%,9.675598%,21.650696%);fill-opacity:1;" d="M 164.242188 18.226562 L 165.082031 17.386719 L 165.082031 8.433594 L 164.242188 7.59375 L 164.242188 18.226562 "/>
<path style=" stroke:none;fill-rule:nonzero;fill:rgb(87.973022%,9.675598%,21.650696%);fill-opacity:1;" d="M 166.65625 10.007812 L 165.816406 9.167969 L 165.816406 16.652344 L 166.65625 15.8125 L 166.65625 10.007812 "/>
<path style=" stroke:none;fill-rule:nonzero;fill:rgb(87.973022%,9.675598%,21.650696%);fill-opacity:1;" d="M 161.308594 8.253906 L 161.308594 17.566406 L 162.039062 18.300781 L 162.039062 7.519531 L 161.308594 8.253906 "/>
<path style=" stroke:none;fill-rule:nonzero;fill:rgb(87.973022%,9.675598%,21.650696%);fill-opacity:1;" d="M 168.859375 13.609375 L 169.558594 12.910156 L 168.859375 12.210938 Z M 168.859375 13.609375 "/>
<path style=" stroke:none;fill-rule:nonzero;fill:rgb(87.973022%,9.675598%,21.650696%);fill-opacity:1;" d="M 158.160156 14.417969 L 158.996094 15.257812 L 158.996094 10.5625 L 158.160156 11.402344 L 158.160156 14.417969 "/>
<path style=" stroke:none;fill-rule:nonzero;fill:rgb(87.973022%,9.675598%,21.650696%);fill-opacity:1;" d="M 163.511719 6.859375 L 163.105469 6.457031 L 162.773438 6.785156 L 162.773438 19.035156 L 163.105469 19.363281 L 163.511719 18.960938 L 163.511719 6.859375 "/>
<path style=" stroke:none;fill-rule:nonzero;fill:rgb(87.973022%,9.675598%,21.650696%);fill-opacity:1;" d="M 157.425781 12.136719 L 156.652344 12.910156 L 157.425781 13.683594 Z M 157.425781 12.136719 "/>
<path style=" stroke:none;fill-rule:nonzero;fill:rgb(87.973022%,9.675598%,21.650696%);fill-opacity:1;" d="M 154.488281 23.648438 L 154.488281 27.984375 L 155.222656 27.25 L 155.222656 24.382812 L 154.488281 23.648438 "/>
<path style=" stroke:none;fill-rule:nonzero;fill:rgb(87.973022%,9.675598%,21.650696%);fill-opacity:1;" d="M 147.667969 21.898438 L 146.828125 22.738281 L 146.828125 28.898438 L 147.667969 29.738281 L 147.667969 21.898438 "/>
<path style=" stroke:none;fill-rule:nonzero;fill:rgb(87.973022%,9.675598%,21.650696%);fill-opacity:1;" d="M 151.339844 31.132812 L 152.179688 30.292969 L 152.179688 21.34375 L 151.339844 20.503906 L 151.339844 31.132812 "/>
<path style=" stroke:none;fill-rule:nonzero;fill:rgb(87.973022%,9.675598%,21.650696%);fill-opacity:1;" d="M 153.753906 22.914062 L 152.914062 22.078125 L 152.914062 29.558594 L 153.753906 28.71875 L 153.753906 22.914062 "/>
<path style=" stroke:none;fill-rule:nonzero;fill:rgb(87.973022%,9.675598%,21.650696%);fill-opacity:1;" d="M 148.402344 21.164062 L 148.402344 30.472656 L 149.136719 31.207031 L 149.136719 20.429688 L 148.402344 21.164062 "/>
<path style=" stroke:none;fill-rule:nonzero;fill:rgb(87.973022%,9.675598%,21.650696%);fill-opacity:1;" d="M 155.957031 26.515625 L 156.65625 25.816406 L 155.957031 25.117188 Z M 155.957031 26.515625 "/>
<path style=" stroke:none;fill-rule:nonzero;fill:rgb(87.973022%,9.675598%,21.650696%);fill-opacity:1;" d="M 145.253906 27.324219 L 146.09375 28.164062 L 146.09375 23.472656 L 145.253906 24.308594 L 145.253906 27.324219 "/>
<path style=" stroke:none;fill-rule:nonzero;fill:rgb(87.973022%,9.675598%,21.650696%);fill-opacity:1;" d="M 150.605469 19.769531 L 150.199219 19.363281 L 149.871094 19.695312 L 149.871094 31.941406 L 150.199219 32.273438 L 150.605469 31.867188 L 150.605469 19.769531 "/>
<path style=" stroke:none;fill-rule:nonzero;fill:rgb(87.973022%,9.675598%,21.650696%);fill-opacity:1;" d="M 144.519531 25.042969 L 143.746094 25.816406 L 144.519531 26.589844 Z M 144.519531 25.042969 "/>
<g clip-path="url(#clip1)" clip-rule="nonzero">
<path style=" stroke:none;fill-rule:nonzero;fill:rgb(24.317932%,11.901855%,12.637329%);fill-opacity:1;" d="M 7.273438 52.15625 L 0 25.363281 L 4.472656 25.363281 L 7.539062 37.476562 C 8.40625 40.839844 9.140625 44.046875 9.742188 47.21875 L 9.808594 47.21875 C 10.410156 44.046875 11.210938 40.800781 12.113281 37.558594 L 15.382812 25.363281 L 19.753906 25.363281 L 11.976562 52.15625 L 7.273438 52.15625 "/>
</g>
<g clip-path="url(#clip2)" clip-rule="nonzero">
<path style=" stroke:none;fill-rule:nonzero;fill:rgb(24.317932%,11.901855%,12.637329%);fill-opacity:1;" d="M 26.050781 38.828125 C 26.050781 44.246094 27.875 48.554688 30.996094 48.554688 C 34.140625 48.554688 35.910156 44.207031 35.910156 38.632812 C 35.910156 33.609375 34.246094 28.863281 30.996094 28.863281 C 27.769531 28.863281 26.050781 33.332031 26.050781 38.828125 Z M 39.347656 38.433594 C 39.347656 47.371094 35.726562 52.46875 30.808594 52.46875 C 25.785156 52.46875 22.613281 46.738281 22.613281 38.90625 C 22.613281 30.722656 26.050781 24.949219 31.074219 24.949219 C 36.28125 24.949219 39.347656 30.84375 39.347656 38.433594 "/>
</g>
<g clip-path="url(#clip3)" clip-rule="nonzero">
<path style=" stroke:none;fill-rule:nonzero;fill:rgb(24.317932%,11.901855%,12.637329%);fill-opacity:1;" d="M 63.066406 38.828125 C 63.066406 44.246094 64.890625 48.554688 68.007812 48.554688 C 71.152344 48.554688 72.925781 44.207031 72.925781 38.632812 C 72.925781 33.609375 71.261719 28.863281 68.007812 28.863281 C 64.78125 28.863281 63.066406 33.332031 63.066406 38.828125 Z M 76.363281 38.433594 C 76.363281 47.371094 72.738281 52.46875 67.824219 52.46875 C 62.800781 52.46875 59.628906 46.738281 59.628906 38.90625 C 59.628906 30.722656 63.066406 24.949219 68.085938 24.949219 C 73.296875 24.949219 76.363281 30.84375 76.363281 38.433594 "/>
</g>
<g clip-path="url(#clip4)" clip-rule="nonzero">
<path style=" stroke:none;fill-rule:nonzero;fill:rgb(24.317932%,11.901855%,12.637329%);fill-opacity:1;" d="M 43.976562 25.363281 L 48.207031 25.363281 L 48.207031 47.925781 L 57.371094 47.925781 L 57.371094 52.15625 L 43.976562 52.15625 L 43.976562 25.363281 "/>
</g>
<g clip-path="url(#clip5)" clip-rule="nonzero">
<path style=" stroke:none;fill-rule:nonzero;fill:rgb(24.317932%,11.901855%,12.637329%);fill-opacity:1;" d="M 85.925781 29.59375 L 79.226562 29.59375 L 79.226562 25.363281 L 96.5 25.363281 L 96.5 29.59375 L 89.800781 29.59375 L 89.800781 52.15625 L 85.925781 52.15625 L 85.925781 29.59375 "/>
</g>
<g clip-path="url(#clip6)" clip-rule="nonzero">
<path style=" stroke:none;fill-rule:nonzero;fill:rgb(24.317932%,11.901855%,12.637329%);fill-opacity:1;" d="M 112.363281 40.167969 L 103.902344 40.167969 L 103.902344 47.925781 L 113.421875 47.925781 L 113.421875 52.15625 L 99.671875 52.15625 L 99.671875 25.363281 L 112.714844 25.363281 L 112.714844 29.242188 L 103.902344 29.242188 L 103.902344 36.292969 L 112.363281 36.292969 L 112.363281 40.167969 "/>
</g>
<g clip-path="url(#clip7)" clip-rule="nonzero">
<path style=" stroke:none;fill-rule:nonzero;fill:rgb(24.317932%,11.901855%,12.637329%);fill-opacity:1;" d="M 128.714844 25.363281 L 123.476562 25.363281 L 116.269531 52.15625 L 120.507812 52.15625 L 124.84375 34.265625 C 125.242188 32.6875 125.578125 30.652344 125.910156 29.242188 L 125.976562 29.242188 C 126.3125 30.652344 126.679688 32.644531 127.113281 34.265625 L 131.617188 52.15625 L 136.019531 52.15625 L 128.714844 25.363281 "/>
</g>
</g>
</svg>

<svg xmlns="http://www.w3.org/2000/svg" width="176pt" height="69.96" viewBox="0 0 176 52.47"><defs><clipPath id="a"><path d="M0 25h20v27.469H0Zm0 0"/></clipPath><clipPath id="b"><path d="M22 24h18v28.469H22Zm0 0"/></clipPath><clipPath id="c"><path d="M59 24h18v28.469H59Zm0 0"/></clipPath><clipPath id="d"><path d="M43 25h15v27.469H43Zm0 0"/></clipPath><clipPath id="e"><path d="M79 25h18v27.469H79Zm0 0"/></clipPath><clipPath id="f"><path d="M99 25h15v27.469H99Zm0 0"/></clipPath><clipPath id="g"><path d="M116 25h21v27.469h-21Zm0 0"/></clipPath></defs><path d="m163.094 6.457-6.457 6.453-6.453-6.453L156.637 0zM150.184 19.363l-6.454 6.453-6.453-6.453 6.453-6.453z" style="stroke:none;fill-rule:nonzero;fill:#e01937;fill-opacity:1"/><path d="M154.488 10.742v4.336l.735-.734v-2.867zM147.668 8.988l-.84.84v6.164l.84.84zM151.34 18.227l.84-.84V8.434l-.84-.84zM153.754 10.008l-.84-.84v7.484l.84-.84zM148.402 8.254v9.312l.735.735V7.52zM155.957 13.61l.7-.7-.7-.7ZM145.254 14.418l.84.84v-4.695l-.84.84zM150.605 6.86l-.406-.403-.328.328v12.25l.328.328.406-.402zM144.52 12.137l-.774.773.774.774ZM176 19.363l-6.453 6.453-6.453-6.453 6.453-6.453zM163.094 32.273l-6.457 6.454-6.453-6.454 6.453-6.457z" style="stroke:none;fill-rule:nonzero;fill:#e01937;fill-opacity:1"/><path d="M167.39 23.648v4.336l.735-.734v-2.867zM160.57 21.898l-.836.84v6.16l.836.84zM164.242 31.133l.84-.84v-8.95l-.84-.84zM166.656 22.914l-.84-.836v7.48l.84-.84zM161.309 21.164v9.309l.73.734V20.43zM168.86 26.516l.699-.7-.7-.699ZM158.16 27.324l.836.84v-4.691l-.836.836zM163.512 19.77l-.407-.407-.332.332v12.246l.332.332.407-.406zM157.426 25.043l-.774.773.774.774ZM167.39 10.742v4.336l.735-.734v-2.867zM160.57 8.988l-.836.84v6.164l.836.84zM164.242 18.227l.84-.84V8.434l-.84-.84zM166.656 10.008l-.84-.84v7.484l.84-.84zM161.309 8.254v9.312l.73.735V7.52zM168.86 13.61l.699-.7-.7-.7ZM158.16 14.418l.836.84v-4.695l-.836.84zM163.512 6.86l-.407-.403-.332.328v12.25l.332.328.407-.402zM157.426 12.137l-.774.773.774.774ZM154.488 23.648v4.336l.735-.734v-2.867zM147.668 21.898l-.84.84v6.16l.84.84zM151.34 31.133l.84-.84v-8.95l-.84-.84zM153.754 22.914l-.84-.836v7.48l.84-.84zM148.402 21.164v9.309l.735.734V20.43z" style="stroke:none;fill-rule:nonzero;fill:#e01937;fill-opacity:1"/><path d="m155.957 26.516.7-.7-.7-.699ZM145.254 27.324l.84.84v-4.691l-.84.836zM150.605 19.77l-.406-.407-.328.332v12.246l.328.332.406-.406zM144.52 25.043l-.774.773.774.774Zm0 0" style="stroke:none;fill-rule:nonzero;fill:#e01937;fill-opacity:1"/><g clip-path="url(#a)"><path d="M7.273 52.156 0 25.363h4.473l3.066 12.114c.867 3.363 1.602 6.57 2.203 9.742h.067c.601-3.172 1.402-6.418 2.304-9.66l3.27-12.196h4.37l-7.776 26.793z" style="stroke:none;fill-rule:nonzero;fill:#3e1e20;fill-opacity:1"/></g><g clip-path="url(#b)"><path d="M26.05 38.828c0 5.418 1.825 9.727 4.946 9.727 3.145 0 4.914-4.348 4.914-9.922 0-5.024-1.664-9.77-4.914-9.77-3.226 0-4.945 4.469-4.945 9.965m13.298-.394c0 8.937-3.621 14.035-8.54 14.035-5.023 0-8.195-5.73-8.195-13.563 0-8.183 3.438-13.957 8.461-13.957 5.207 0 8.274 5.895 8.274 13.485" style="stroke:none;fill-rule:nonzero;fill:#3e1e20;fill-opacity:1"/></g><g clip-path="url(#c)"><path d="M63.066 38.828c0 5.418 1.825 9.727 4.942 9.727 3.144 0 4.918-4.348 4.918-9.922 0-5.024-1.664-9.77-4.918-9.77-3.227 0-4.942 4.469-4.942 9.965m13.297-.394c0 8.937-3.625 14.035-8.539 14.035-5.023 0-8.195-5.73-8.195-13.563 0-8.183 3.437-13.957 8.457-13.957 5.21 0 8.277 5.895 8.277 13.485" style="stroke:none;fill-rule:nonzero;fill:#3e1e20;fill-opacity:1"/></g><g clip-path="url(#d)"><path d="M43.977 25.363h4.23v22.563h9.164v4.23H43.977z" style="stroke:none;fill-rule:nonzero;fill:#3e1e20;fill-opacity:1"/></g><g clip-path="url(#e)"><path d="M85.926 29.594h-6.7v-4.23H96.5v4.23h-6.7v22.562h-3.874z" style="stroke:none;fill-rule:nonzero;fill:#3e1e20;fill-opacity:1"/></g><g clip-path="url(#f)"><path d="M112.363 40.168h-8.46v7.758h9.519v4.23h-13.75V25.363h13.043v3.88h-8.813v7.05h8.461z" style="stroke:none;fill-rule:nonzero;fill:#3e1e20;fill-opacity:1"/></g><g clip-path="url(#g)"><path d="M128.715 25.363h-5.238l-7.207 26.793h4.238l4.336-17.89c.398-1.578.734-3.614 1.066-5.024h.067c.335 1.41.703 3.403 1.136 5.024l4.504 17.89h4.403z" style="stroke:none;fill-rule:nonzero;fill:#3e1e20;fill-opacity:1"/></g></svg>
